app/assets/v2/images/avatar/Accessories/Masks-flash_inspired.svg

<svg height="1416" width="899" xmlns="http://www.w3.org/2000/svg"><g fill="none" fill-rule="evenodd"><path d="m754.96 276.068v401.916h-610.55v-401.916h478.09z" fill="#e82020" fill-opacity=".98"/><path d="m754.96 276.068v401.916h-610.55v-401.916h478.09z" fill="none" stroke="#e82020" stroke-opacity=".98" stroke-width="1.894"/><path d="m215.665 676.024v188.728l41.949 64.143-113.228-64.143v-188.728" fill="#e82020" fill-opacity=".98"/><path d="m215.665 676.024v188.728l41.949 64.143-113.228-64.143v-188.728m92.826 5.428h-68.014" fill="none" stroke="#e82020" stroke-opacity=".98" stroke-width="1.894"/><path d="m683.572 676.024v188.728l-41.43 64.143 111.83-64.143v-188.728" fill="#e82020" fill-opacity=".98"/><path d="m683.572 676.024v188.728l-41.43 64.143 111.83-64.143v-188.728" fill="none" stroke="#e82020" stroke-opacity=".98" stroke-width="1.894"/><path d="m117.398 406.083h95.402v188.6h-95.403zm664.543 0h-95.187v188.6h95.187z" fill="#ffcd05"/><path d="m685.939 676.03-76.024 126.964-158.197-126.964-155.827 126.964-82.877-126.964" fill="#e82020" fill-opacity=".98"/><path d="m685.939 676.03-76.024 126.964-158.197-126.964-155.827 126.964-82.877-126.964" fill="none" stroke="#e82020" stroke-opacity=".98" stroke-width="1.894"/><path d="m143.682 456.927-63.206-114.77-41.462 62.608-38.498-128.698 23.696 249.6 47.37-79.164 72.1 103.92z" fill="#ffcd05"/><path d="m143.682 456.927-63.206-114.77-41.462 62.608-38.498-128.698 23.696 249.6 47.37-79.164 72.1 103.92z" fill="none" stroke="#ffcd05" stroke-opacity=".98" stroke-width="1.894"/><path d="m755.803 456.927 63.226-114.77 41.461 62.608 38.479-128.698-23.676 249.6-47.39-79.164-72.1 103.92z" fill="#ffcd05"/><path d="m755.803 456.927 63.226-114.77 41.461 62.608 38.479-128.698-23.676 249.6-47.39-79.164-72.1 103.92z" fill="none" stroke="#ffcd05" stroke-opacity=".98" stroke-width="1.894"/><path d="m405.968 547.37h-108.909" fill="none" stroke="#e82020" stroke-opacity=".98" stroke-width="1.894"/><path d="m420.92 630.36-97.358 73.212-54.518-107.95z" fill="#fff"/><path d="m420.92 630.36-97.358 73.212-54.518-107.95z" fill="none" stroke="#e82020" stroke-opacity=".98" stroke-width="1.894"/><path d="m493.01 630.36 97.235 73.212 54.46-107.95z" fill="#fff"/><path d="m493.01 630.36 97.235 73.212 54.46-107.95z" fill="none" stroke="#e82020" stroke-opacity=".98" stroke-width="1.894"/></g></svg>

<svg width="899" height="1416" xmlns="http://www.w3.org/2000/svg"><g fill="none" fill-rule="evenodd"><path d="M754.96 276.068v401.916H144.41V276.068H622.5z" fill="#E82020" fill-opacity=".98"/><path d="M754.96 276.068v401.916H144.41V276.068H622.5z" fill-opacity="0" stroke="#E82020" stroke-opacity=".98" stroke-width="1.894"/><path d="M215.665 676.024v188.728l41.949 64.143-113.228-64.143V676.024" fill="#E82020" fill-opacity=".98"/><path d="M215.665 676.024v188.728l41.949 64.143-113.228-64.143V676.024m92.826 5.428h-68.014" fill-opacity="0" stroke="#E82020" stroke-opacity=".98" stroke-width="1.894"/><path d="M683.572 676.024v188.728l-41.43 64.143 111.83-64.143V676.024" fill="#E82020" fill-opacity=".98"/><path d="M683.572 676.024v188.728l-41.43 64.143 111.83-64.143V676.024" fill-opacity="0" stroke="#E82020" stroke-opacity=".98" stroke-width="1.894"/><path d="M117.398 406.083H212.8v188.6h-95.403zm664.543 0h-95.187v188.6h95.187z" fill="#FFCD05"/><path d="M685.939 676.03l-76.024 126.964L451.718 676.03 295.891 802.994 213.014 676.03" fill="#E82020" fill-opacity=".98"/><path d="M685.939 676.03l-76.024 126.964L451.718 676.03 295.891 802.994 213.014 676.03" fill-opacity="0" stroke="#E82020" stroke-opacity=".98" stroke-width="1.894"/><path d="M143.682 456.927l-63.206-114.77-41.462 62.608L.516 276.067l23.696 249.6 47.37-79.164 72.1 103.92z" fill="#FFCD05"/><path d="M143.682 456.927l-63.206-114.77-41.462 62.608L.516 276.067l23.696 249.6 47.37-79.164 72.1 103.92z" fill-opacity="0" stroke="#FFCD05" stroke-opacity=".98" stroke-width="1.894"/><path d="M755.803 456.927l63.226-114.77 41.461 62.608 38.479-128.698-23.676 249.6-47.39-79.164-72.1 103.92z" fill="#FFCD05"/><path d="M755.803 456.927l63.226-114.77 41.461 62.608 38.479-128.698-23.676 249.6-47.39-79.164-72.1 103.92z" fill-opacity="0" stroke="#FFCD05" stroke-opacity=".98" stroke-width="1.894"/><path d="M405.968 547.37H297.059" fill-opacity="0" stroke="#E82020" stroke-opacity=".98" stroke-width="1.894"/><path d="M420.92 630.36l-97.358 73.212-54.518-107.95z" fill="#FFF"/><path d="M420.92 630.36l-97.358 73.212-54.518-107.95z" fill-opacity="0" stroke="#E82020" stroke-opacity=".98" stroke-width="1.894"/><path d="M493.01 630.36l97.235 73.212 54.46-107.95z" fill="#FFF"/><path d="M493.01 630.36l97.235 73.212 54.46-107.95z" fill-opacity="0" stroke="#E82020" stroke-opacity=".98" stroke-width="1.894"/></g></svg>
